X: 131
T: No_65_Song_Concerning_the_White_Mountain.krn
N: Derived from No_65_Song_Concerning_the_White_Mountain.krn
%%abc-version 2.0
%%abcx-abcm2ps-target-version 5.9.1 (29 Sep 2008)
%%abc-creator hum2abc beta
%%abcx-conversion-date 2019/03/15 08:37:56
%%humdrum-veritas 3984348344
%%humdrum-veritas-data 313419321
%%linebreak <none>
%%barnumbers 0
L: 1/8
M: 2/4
K: F clef=bass
[K:clef=bass][M:2/4]A,2A,F, | 
A,2A,A, | 
(E,3/D,/)E,2 ]|:  
[M:3/4]B,2!fermata!B,2A,E,3//E,// ||  
[M:2/4]D,D, A,,(D,3//A,,//) | 
D,2z2 | 
D,3/E,/ (E,/D,3/) | 
D,/D,/E, D,3/D,/ | 
D,2A,, z | 
D,2(E,/D,/)E,/D,/ ||  
[M:3/4]D,D,-D,2D,3/A,,/ ||  
[M:2/4]D,3/D,/ D,3/D,/ | 
D,4 :|]  



